**kern	**kern
*staff1	*staff1
*head1[head1a]	*head1[head1a]
*head1[head1b]	*head1[head1b]
*head1[head1aa]	*head1[head1aa]
*solo2[solo2a]	*solo2[solo2a]
*solo2[solo2b]	*solo2[solo2b]
*solo2[solo2aa]	*solo2[solo2aa]
*solo3[solo3a]	*solo3[solo3a]
*solo3[solo3b]	*solo3[solo3b]
*solo3[solo3aa]	*solo3[solo3aa]
=1-	=1-
*clefG2	*clefG2
*k[]	*k[]
*B-:	*B-:
*M4/4	*M4/4
*>head1a	*>head1a
{4f/	1B-:maj
12dd\L	.
12cc\	.
12b-\J	.
4a/	.
12cc\L	.
12b-\	.
12a\J	.
=2	=2
4g/	2C:min
4r	.
2r	2F:dom
=3	=3
8dd\L	2D:min
8ee-\	.
8dd\	.
8cc\J	.
8b/L	2G:dom
8a-/	.
8g/	.
8f/J	.
=4	=4
8e-/L	2C:min
8G/	.
8B-/	.
8d/J	.
8c/L	2F:dom
8B-/J	.
12c/L	.
12e-/	.
12g/J	.
=5	=5
4f/	2F:min
4r	.
8r	2B-:dom
16cc\LL	.
16b\J	.
8b-\	.
8a-\J	.
=6	=6
8g/L	2E-:dom
8f/	.
8e-/	.
8B-/J	.
8b-/L	2E-:min
8g-/	.
8e-/	.
8Bn/J	.
=7	=7
8B-/L	1B-:maj
8e-/	.
8c/	.
8c#/J	.
2d/}	.
=8	=8
2r	2C:min
4r	2F:dom
8r	.
{[8d/	.
=9	=9
4d/]	1B-:maj
4f/	.
8cc/L	.
8b-/	.
8a/	.
8g/J	.
=10||	=10||
8f#/L	2C:min
8g/	.
8b-/	.
8g/J	.
8e-/L	2F:dom
8c/	.
8a/	.
8g/J	.
=11	=11
8f/L	2D:min
8e-/	.
8d/	.
8c/J	.
8B/L	2G:dom
8a-/	.
8g/	.
8f/J	.
=12	=12
8e-/L	2C:min
8G/	.
8B-/	.
8d/J	.
8c/L	2F:dom
8B-/J	.
12c/L	.
12e-/	.
12g-/J	.
=13	=13
4f/	2F:min
4r	.
8cc\L	2B-:dom
8b\	.
8b-\	.
8a-\J	.
=14	=14
8g/L	2E-:dom
8f/	.
8e-/	.
8c/J	.
8b-/L	2E-:min
8g-/	.
8e-/	.
8c/J	.
=15	=15
8a/L	1B-:maj
8f/	.
8d/	.
8c/J	.
2g/}	.
=16	=16
1r	2B-:maj
=17	=17
*>head2b	*>head2b
{12ee\L	1A:min
12dd\	.
12cc\J	.
8b/L	.
8a/J	.
8g/L	.
8f#/	.
8e/	.
8A/J	.
=18||	=18||
12c/L	1D:dom
12d/	.
12B-/J	.
8b-/L	.
8f#/J	.
8d/L	.
8B-/	.
8a/	.
8g/J	.
=19	=19
8f/L	1G:dom
8e/	.
8d/	.
8c/J	.
8B/L	.
8d/	.
8f/	.
8g/J	.
=20	=20
12a-/L	1G:dom
12b-/	.
12a-/J	.
8g/L	.
8f/J	.
8e/L	.
8d/	.
8d-/	.
8B/J	.
=21	=21
8c/L	1C:dom
8B/	.
8c/	.
8d/J	.
8e/L	.
8f/	.
8g/	.
8a/J	.
=22	=22
8cc\L	1C:dom
8b\	.
8b-\	.
8a\J	.
8g/L	.
8f/J	.
12e/L	.
12g/	.
12b-/J	.
=23	=23
4dd\	1C:min
8r	.
8cc\	.
8b-/L	.
8a/	.
8g/	.
8f/J	.
=24	=24
8e-/L	1F:min
8G/	.
8B-/	.
8d/J	.
8c/L	.
8B-/J	.
12c/L	.
12e-/	.
12g-/J	.
=25	=25
*>head1aa	*>head1aa
4f/	1B-:maj
4r	.
[2b-\	.
=26||	=26||
2b-\]	2C:min
8a/L	2F:dom
8b-/	.
8cc/	.
8a/J	.
=27	=27
8b-/L	2D:min
8g/	.
8d/	.
8B-/J	.
2f/}	2G:dom
=28	=28
2r	2C:min
2r	2F:dom
=29	=29
2r	2F:min
4r	2B-:dom
{12cc#\L	.
12dd\	.
12ee-\J	.
=30	=30
4dd\	1E-:dom
2f/	.
4r	.
=31	=31
2r	2B-:dom
12cc#\L	2G:dom
12dd\	.
12ee-\J	.
4dd\	.
=32	=32
2f/}	2C:min
2r	2F:dom
=33	=33
*>solo1a	*>solo1a
{8a\L	1B-:maj
8b-\	.
8cc\	.
8b-\J	.
8a\L	.
8b-\	.
8dd\	.
8ff\J	.
=34||	=34||
8ee\L	2C:min
8dd-\	.
8b-\	.
8g\J	.
8g-/L	2F:dom
8a/	.
8cc/	.
8ee-/J	.
=35	=35
8cc\L	2D:min
8cc#\	.
8dd\	.
8ccn\J	.
8b/L	2G:dom
8a-/	.
8g/	.
8f/J	.
=36	=36
8e-/L	2C:min
8G/	.
8B-/	.
8d/J	.
8c/L	2F:dom
8B-/	.
8A/J	.
24c/LL	.
24e-/	.
24g-/JJ	.
=37	=37
8f/L	2F:min
8g/	.
8a-/	.
8g/J	.
8f/L	2B-:dom
8e-/	.
8d/	.
8c/J	.
=38	=38
8b-/L	1E-:dom
8g/	.
8e-/	.
8B/J	.
4B-/}	.
4r	.
=39	=39
2r	2D:min
8r	2G:dom
{8e-/L	.
8c/	.
8c#/J	.
=40	=40
8d/L	2C:min
8B-/	.
8G/	.
8A/J	.
8c/L	2F:dom
8A/J	.
16B-/LL	.
16c/	.
16d/	.
16f#/JJ	.
=41	=41
4f/	1B-:dom
4r	.
4r	.
8r	.
[8d/	.
=42||	=42||
4d/]	2C:min
8f/L	.
8d/J	.
8e-/L	2F:dom
8c/J}	.
4r	.
=43	=43
2r	2D:min
{8a/L	2G:dom
8b-/	.
8cc/	.
8a/J	.
=44	=44
8b-/L	2C:min
8g/	.
8e-/	.
8c/J	.
8d-/L	2F:dom
8a/	.
8g/	.
8g-/J	.
=45	=45
8f/L	2F:min
8g/	.
8a-/	.
8g/J	.
8f/L	2B-:dom
8e-/	.
8d/	.
8c/J	.
=46	=46
4b-\	1E-:dom
8r	.
[8dd-\	.
24dd-\LL]	.
24ee-\	.
24dd-\JJ	.
8b-\L	.
8cc\	.
[8a\J	.
=47	=47
8a/L]	1B-:maj
16a#/L	.
16b/J	.
8cc/	.
[8f/J	.
4f/]}	.
4r	.
=48	=48
1r	1B-:maj
=49	=49
8r	1A-:min
*>solo1b	*>solo2b
{8B/	.
12c/L	.
12e-/	.
12g/J	.
8b-/L	.
8g-/	.
8d/	.
8c/J	.
=50||	=50||
8b-/L	1D:dom
8a-/	.
8g/	.
8a-/J	.
8cc\L	.
8ee-\	.
8cc\	.
8cc#\J	.
=51	=51
8dd\L	1G:dom
8b\J}	.
4r	.
2r	.
=52	=52
2r	1G:dom
{12ee\L	.
12ff\	.
12ff#\J	.
12gg\L	.
12ff#\	.
12ffn\J	.
=53	=53
8ee\L	1C:dom
8cc\	.
8cc#\	.
8dd\J	.
8b-/L	.
8a/	.
8g/	.
8f/J	.
=54	=54
12e/L	1C:dom
12g/	.
12b-/J	.
8dd/L	.
8g/J	.
8a/L	.
8cc/	.
8b-/	.
8a/J	.
=55	=55
8g/L	1C:min
8f/	.
8e-/	.
8G/J	.
8B-/L	.
8d/	.
8c/	.
8B-/J	.
=56	=56
8A/L	1F:dom
8f#/	.
8e-/	.
8en/J	.
8fn/L	.
8e-/	.
8d/	.
8c/J	.
=57	=57
4b-\	1B-:maj
4r	.
4f/	.
*>solo1aa	*>solo1aa
4b-\	.
=58||	=58||
4cc\}	2C:min
4r	.
2r	2F:dom
=59	=59
4r	2D:min
{8f/L	.
8g/J	.
8b-\L	2G:dom
8cc\	.
8b-\	.
8dd\J	.
=60	=60
8ee-/L	2C:min
8g/J	.
[4dd\	.
8dd\L]	2F:dom
[8ee-\	.
8ee-\]	.
8g\J	.
=61	=61
4.dd\	2F:min
[8ee-\	.
4ee-\]}	2B-:dom
4r	.
=62	=62
2r	1E-:dom
4r	.
{8dd\L	.
8ee-\J	.
=63	=63
8ff\L	2B-:maj
8ee-\	.
8dd\	.
8cc\J	.
8b-/L	2G:dom
8a/	.
8g/	.
8g-/J	.
=64	=64
8f/L	2C:min
8e-/	.
8B-/	.
8G/J	.
8d/L	2F:dom
8F/	.
8G/	.
8A/J	.
=65	=65
8c/L	1B-:maj
8B-/	.
8A/	.
8B-/J	.
8d/L	.
8f/	.
8g/	.
8a/J	.
=66||	=66||
8b-/L	2C:min
8g/	.
8e-/	.
8c/J	.
8d-/L	2F:dom:5+
8a/	.
8g/	.
8g-/J	.
=67	=67
8f/L	2D:min
8e-/	.
8d/	.
8c/J	.
8B/L	2G:dom:9-
8A-/	.
8G/	.
8F/J	.
=68	=68
4E-/}	2C:min
4r	.
4r	2F:dom
*>solo2a	*>solo2a
{8d/L	.
8c/J	.
=69	=69
8B-/L	2F:min
8A/	.
8A-/	.
8B-/J	.
8b-/L	2B-:dom
8a-/	.
8g/	.
8f/J	.
=70	=70
8e-/L	1E-:dom
8A/	.
8B-/	.
8c/J	.
8d-/L	.
8B-/	.
8G/	.
8A/J	.
=71	=71
8c/L	1B-:maj
8B-/	.
8A/	.
8B-/J	.
2d/}	.
=72	=72
2r	2C:min
2r	2F:dom
=73	=73
{12f/L	1B-:maj
12g/	.
12f/J	.
8d/L	.
8f/J	.
12b-\L	.
12cc\	.
12b-\J	.
8f/L	.
8b-/J	.
=74||	=74||
8dd\L	2C:min
8cc\	.
8b-\	.
8a\J	.
8cc/L	2F:dom
8b-/	.
8a/	.
8g/J	.
=75	=75
4f/}	2B-:maj
4r	.
2r	2G:dom
=76	=76
{8ff\L	2C:min
8dd\	.
8ee-\	.
8cc\J}	.
2r	2F:dom
=77	=77
4r	2F:min
{8cc\L	.
8b\J	.
8b-/L	2B-:dom
8a/	.
8a-/	.
8cc/J	.
=78	=78
8g\L	1E-:maj
8b-\	.
8cc\	.
8dd\J	.
8ff\L	.
8ee-\	.
8dd\	.
8cc\J	.
=79	=79
8b-/L	2B-:maj
8g/	.
8e-/	.
8c/J	.
2d/}	2G:dom
=80	=80
2r	2C:min
2r	2C:dom
=81	=81
*>solo2b	*>solo2b
{8cc#\L	1A:min
8dd\	.
8cc#\	.
8dd\J	.
8ee-\L	.
8dd\	.
8ee-\	.
8dd\J	.
=82||	=82||
8cc#\L	1D:dom
8dd\	.
8cc#\	.
8dd\J	.
8ee-\L	.
8dd\	.
8ee-\	.
8dd\J	.
=83	=83
8b-\L	1G:dom
8bn\	.
8b-\	.
8bn\J	.
8dd\L	.
8b\	.
8dd\	.
8b\J	.
=84	=84
8a/L	1G:dom
8f/	.
8e/	.
8d/J	.
8b\L	.
8cc\	.
8b\	.
8cc\J	.
=85	=85
8dd/L	1C:dom
8a-/	.
8an/	.
8cc/J	.
8b-/L	.
8a/	.
8g/	.
8f/J	.
=86	=86
8e/L	1C:dom
8c/	.
8c#/	.
8d/J	.
8B-/L	.
8G/	.
8cn/	.
8B-/J	.
=87	=87
8A/L	1C:min
8c/	.
8e-/	.
8c/J	.
4g/}	.
4r	.
=88	=88
1r	1F:dom
=89	=89
4r	1B-:maj
*>solo2aa	*>solo2aa
{8f/L	.
8g/J	.
8b-\L	.
8ee-\	.
8dd\	.
8b-\J	.
=90||	=90||
8dd\L	2C:min
8ee-\J	.
4r	.
4r	2F:dom
8r	.
8dd-\	.
=91	=91
4dd\	2D:min
12ee-\L	.
12dd\	.
12cc\J	.
8b/L	2G:dom
8a-/	.
8g/	.
8f/J	.
=92	=92
8e-/L	2C:min
8G/	.
8B-/	.
8d/J	.
8c/L	2F:dom
8B-/J	.
12c/L	.
12e-/	.
12g-/J	.
=93	=93
4f/	2F:min
4r	.
8cc\L	2B-:dom
8b\	.
8b-\	.
8a-\J	.
=94	=94
8g/L	2E-:dom
8f/	.
8e-/	.
8c/J	.
8b-/L	2E-:min
8g-/	.
8e-/	.
8B/J	.
=95	=95
8B-/L	2B-:maj
8e-/	.
8c/	.
8c#/J	.
8d/L	2G:dom
8B-/	.
8G/	.
8A/J	.
=96	=96
8c/L	2C:min
8B-/J	.
12c/L	.
12e-/	.
12g-/J	.
8f/L	2F:dom
8e-/	.
8d/	.
8c/J	.
=97	=97
12A/L	1B-:maj
12B-/	.
12Bn/J	.
8c/L	.
8A/J	.
8B-/L	.
[8F/J	.
4F/]}	.
=98||	=98||
1r	.
=99	=99
1r	.
=100	=100
1r	.
=101	=101
1r	.
=102	=102
1r	.
=103	=103
1r	.
=104	=104
1r	.
=105	=105
1r	.
=106	=106
1r	.
=107	=107
1r	.
=108	=108
1r	.
=109	=109
1r	.
=110	=110
1r	.
=111	=111
1r	.
=112	=112
1r	.
=113	=113
1r	.
=114	=114
1r	.
=115	=115
1r	.
=116	=116
1r	.
=117	=117
1r	.
=118	=118
1r	.
=119	=119
1r	.
=120	=120
1r	.
=121	=121
1r	.
=122	=122
1r	.
=123	=123
1r	.
=124	=124
1r	.
=125	=125
1r	.
=126	=126
1r	.
=127	=127
1r	.
=128	=128
1r	.
=129	=129
1r	.
=130||	=130||
1r	.
=131	=131
1r	.
=132	=132
1r	.
=133	=133
1r	.
=134	=134
1r	.
=135	=135
1r	.
=136	=136
1r	.
=137	=137
1r	.
=138	=138
1r	.
=139	=139
1r	.
=140	=140
1r	.
=141	=141
1r	.
=142	=142
1r	.
=143	=143
1r	.
=144	=144
1r	.
=145	=145
1r	.
=146	=146
1r	.
=147	=147
1r	.
=148	=148
1r	.
=149	=149
1r	.
=150	=150
1r	.
=151	=151
1r	.
=152	=152
1r	.
=153	=153
1r	.
=154	=154
1r	.
=155	=155
1r	.
=156	=156
1r	.
=157	=157
1r	.
=158	=158
1r	.
=159	=159
1r	.
=160	=160
1r	.
=161	=161
1r	.
=162||	=162||
1r	.
=163	=163
1r	.
=164	=164
1r	.
=165	=165
1r	.
=166	=166
1r	.
=167	=167
1r	.
=168	=168
1r	.
=169	=169
1r	.
=170	=170
1r	.
=171	=171
1r	.
=172	=172
1r	.
=173	=173
1r	.
=174	=174
1r	.
=175	=175
1r	.
=176	=176
1r	.
=177	=177
1r	.
=178	=178
1r	.
=179	=179
1r	.
=180	=180
1r	.
=181	=181
1r	.
=182	=182
1r	.
=183	=183
1r	.
=184	=184
1r	.
=185	=185
1r	.
=186	=186
1r	.
=187	=187
1r	.
=188	=188
1r	.
=189	=189
1r	.
=190	=190
1r	.
=191	=191
1r	.
=192	=192
1r	.
=193	=193
*>solo3a	*>solo3aa
{4b-\	1B-:maj
12dd\L	.
12cc\	.
12b-\J	.
4a/	.
12cc\L	.
12b-\	.
12a\J	.
=194||	=194||
8g/L	2C:min
8f#/	.
8g/	.
8g#/J	.
4a/	2F:dom
12fn/L	.
12gn/	.
12a/J	.
=195	=195
8cc\L	2D:min
8b-\	.
8bn\	.
8a-\J	.
8e/L	4D-:min
8d/	.
8b-/	4G:dom
8a-/J	.
=196	=196
8g/L	2C:min
8g-/	.
8f/	.
8e/J	.
8e-/L	2F:dom
8B-/	.
8d/	.
8c/J	.
=197	=197
8B-/L	2F:min
8A/	.
8A-/	.
8B-/J	.
8b-/L	2B-:dom
8a-/	.
8g/	.
8f/J	.
=198	=198
8e-/L	2E-:maj
8G/	.
8B-/	.
8c/J	.
8d-/L	2E-:min
8B-/	.
8G/	.
8A/J	.
=199	=199
8c/L	2B-:maj
8B-/	.
8A/	.
8B-/J	.
8d/L	2G:dom
8f/J}	.
4r	.
=200	=200
2r	2C:min
2r	2F:dom
=201	=201
4r	1B-:maj
{8f/L	.
8b-/J	.
8ff\L	.
16ee\L	.
16ee-\JJ	.
4dd\}	.
=202||	=202||
2r	2C:min
4r	2F:dom
{[4dd\	.
=203	=203
4dd\]	2D:min
8ff\L	.
8ee-\J	.
8dd\L	2G:dom
8cc\	.
8b\	.
8dd\J	.
=204	=204
8cc/L	2C:min
8g/	.
8b-/	.
8a-/J	.
16an/LL	2F:dom
16a/J	.
8g/	.
8d#/	.
8e/J	.
=205	=205
8f/L	2F:min
8g/	.
8a-/	.
8g/J	.
8f/L	2B-:dom
8e-/	.
8d/	.
8c/J	.
=206	=206
4b-\	2E-:maj
8dd-\L	.
8b-\J	.
8cc\	2E-:dom
24dd-\LL	.
24cc\	.
24b-\JJ	.
8a-/L	.
8f/J	.
=207	=207
8e-/L	1B-:maj
8d-/	.
8B-/	.
8G/J	.
[2dn/	.
=208	=208
4d/]}	1B-:maj
4r	.
2r	.
=209	=209
*>solo3b	*>solo3b
{[1dd	1A:min
=210||	=210||
2dd\]	1D:dom
8r	.
8B/	.
12c/L	.
12e-/	.
12g/J	.
=211	=211
8b-/L	1G:dom
8g-/	.
8c/	.
8B/J	.
8B-/L	.
8gn/	.
8f#/	.
8a/J	.
=212	=212
8cc\L	1G:dom
8ee-\	.
8cc\	.
8cc#\J	.
8dd\L	.
8b\J}	.
4r	.
=213	=213
4r	1C:dom
{8d/L	.
8e/J	.
4f/	.
4r	.
=214	=214
4r	1C:dom
8e/L	.
8f/J	.
8g/L	.
8a/	.
8b-/	.
8cc/J	.
=215	=215
8dd\	1C:min
8r	.
8a/L	.
8cc/J	.
8b-/L	.
8a/	.
8g/	.
8f/J	.
=216	=216
8e-/L	1F:dom
8G/	.
8B-/	.
8d/J	.
8c/L	.
8A/J	.
16B-/LL	.
16c/	.
16e-/	.
16g-/JJ	.
=217	=217
*>solo3aa	*>solo3aa
4f/	1B-:maj
4r	.
4b-\	.
4r	.
=218||	=218||
8a/L	2C:min
8b-/	.
8cc/	.
8a/J	.
8b-/L	2F:dom
8g/	.
8e-/	.
8c/J	.
=219	=219
4a/}	2D:min
4r	.
4r	2G:dom
{8g/L	.
8g-/J	.
=220	=220
8f/L	2C:min
8e/	.
8e-/	.
8B-/J	.
8d/L	2F:dom
8c/	.
8B-/	.
8A/J	.
=221	=221
4A-/}	2F:min
4r	.
{8b-/L	2B-:dom
8a-/	.
8g/	.
8f/J	.
=222	=222
8e-/L	2E-:maj
8A/	.
8B-/	.
8c/J	.
8d-/L	2E-:dom
8B-/	.
8G/	.
8F/J	.
=223	=223
8c/L	1B-:maj
8B-/	.
8A/	.
8B-/J	.
8d/L	.
8f/	.
8g/	.
8a/J	.
=224	=224
8cc/L	1B-:maj
8b-/	.
8a/	.
8g/J	.
[2a/	.
=225	=225
4a/]	1B-:maj
8g/L	.
8g-/J	.
8f/L	.
8d/	.
8c/	.
8B-/J	.
=226	=226
2.c/	1B-:maj
4B-/	.
=227	=227
8A/L	1B-:maj
8G/J	.
2.A;/}	.
==	==
*-	*-
